src/icons/warning-triangle.svg

<svg viewBox="0 0 24 24" fill="none" xmlns="http://www.w3.org/2000/svg">
    <path fill-rule="evenodd" clip-rule="evenodd"
          d="M19.5414 21.1299C21.0235 21.1299 22 20.0574 22 18.7081C22 18.3102 21.8954 17.895 21.6687 17.5145L14.1011 4.10805C13.6303 3.27775 12.8282 2.87988 12.0087 2.87988C11.1718 2.87988 10.3348 3.29503 9.88141 4.10805L2.33128 17.5145C2.10465 17.895 2 18.3102 2 18.7081C2 20.0574 2.95903 21.1299 4.44117 21.1299H19.5414ZM11.2578 7.89673C11.0889 8.06079 10.9913 8.29675 11.0006 8.58588V8.58643L11.147 13.7902C11.1567 14.0792 11.2426 14.2845 11.3796 14.418C11.5164 14.5513 11.7217 14.6299 12.0053 14.6299C12.2781 14.6299 12.475 14.554 12.6063 14.423C12.7383 14.2913 12.8224 14.0858 12.8322 13.7903L12.9995 8.59631C13.0176 8.03479 12.597 7.62988 11.9948 7.62988C11.6793 7.62988 11.4275 7.73199 11.2578 7.89673ZM13 16.8799C13 17.4322 12.5523 17.8799 12 17.8799C11.4477 17.8799 11 17.4322 11 16.8799C11 16.3276 11.4477 15.8799 12 15.8799C12.5523 15.8799 13 16.3276 13 16.8799Z"
          fill="currentColor"/>
</svg>

<svg viewBox="0 0 24 24" fill="none" xmlns="http://www.w3.org/2000/svg"><path fill-rule="evenodd" clip-rule="evenodd" d="M19.541 21.13c1.482 0 2.459-1.073 2.459-2.422 0-.398-.105-.813-.331-1.193L14.1 4.108A2.363 2.363 0 0 0 12.01 2.88c-.837 0-1.674.415-2.128 1.228l-7.55 13.407c-.226.38-.331.795-.331 1.193 0 1.35.959 2.422 2.441 2.422h15.1zM11.258 7.897a.893.893 0 0 0-.257.689l.146 5.204c.01.29.096.495.233.628.136.133.342.212.625.212.273 0 .47-.076.601-.207.132-.132.216-.337.226-.633L13 8.596c.019-.561-.402-.966-1.004-.966-.316 0-.567.102-.737.267zM13 16.88a1 1 0 1 1-2 0 1 1 0 0 1 2 0z" fill="currentColor"/></svg>
